X:1766
T:O'Neill's Hornpipe
M:C|
L:1/8
B:O'Neill's 1766
R:Hornpipe
Z:"Transcribed by Bob Safranek, rjs@gsp.org"
K:A
e>d|c>eA>c E>AC>E|((3A,CE) ((3Ace) a2 b>a|g>be>g B>eG>B|((3EGB) ((3egb) e'2 e>d|
    c>eA>c E>AC>E|((3A,CE) ((3Ace) a>c'b>a | g>be>g f>a^d>f | e>Bg>B e2 :|
|: d>e | f>A,D>F A>Bf>a | e>A,C>E A>df>a | g>B,E>G B>dg>a | b>ag>f e>cd>e |
         f>A,D>F A>dg>a | e>A,C>E A>ce>a | g>eb>g e>dB>e | A2 [a2c] [a2c] :|


